dist/assets/images/footer/facebookLogo.svg

<svg width="22" height="45" viewBox="0 0 22 45" fill="none" xmlns="http://www.w3.org/2000/svg">
<g clip-path="url(#clip0_71_234)">
<path d="M5.61609 45V23.8847H0V16.2822H5.61609V9.78862C5.61609 4.68594 8.93354 0 16.5776 0C19.6726 0 21.9612 0.294975 21.9612 0.294975L21.7809 7.39445C21.7809 7.39445 19.4469 7.37186 16.8999 7.37186C14.1433 7.37186 13.7017 8.63478 13.7017 10.7309V16.2822H22L21.6389 23.8847H13.7017V45H5.61609Z" fill="black"/>
</g>
<defs>
<clipPath id="clip0_71_234">
<rect width="22" height="45" fill="white"/>
</clipPath>
</defs>
</svg>

<svg width="22" height="45" fill="none" xmlns="http://www.w3.org/2000/svg"><g clip-path="url(#clip0_71_234)"><path d="M5.616 45V23.885H0v-7.603h5.616V9.79C5.616 4.686 8.934 0 16.578 0c3.095 0 5.383.295 5.383.295l-.18 7.1s-2.334-.023-4.881-.023c-2.757 0-3.198 1.263-3.198 3.359v5.551H22l-.361 7.603h-7.937V45H5.616z" fill="#000"/></g><defs><clipPath id="clip0_71_234"><path fill="#fff" d="M0 0h22v45H0z"/></clipPath></defs></svg>
